static/img/menus/ico-door-sensor.svg

<svg width="16" height="17" viewBox="0 0 16 17" fill="none" xmlns="http://www.w3.org/2000/svg">
<path d="M3.00885 13.9087V3.09132C2.9895 2.94439 3.00198 2.79458 3.04531 2.65378C3.08863 2.51298 3.16161 2.38503 3.25846 2.28008C3.35531 2.17513 3.47338 2.09605 3.60331 2.0491C3.73325 2.00215 3.87148 1.98862 4.00708 2.00959H11.9929C12.1285 1.98862 12.2668 2.00215 12.3967 2.0491C12.5266 2.09605 12.6447 2.17513 12.7415 2.28008C12.8384 2.38503 12.9114 2.51298 12.9547 2.65378C12.998 2.79458 13.0105 2.94439 12.9912 3.09132V13.9087C13.0105 14.0556 12.998 14.2054 12.9547 14.3462C12.9114 14.487 12.8384 14.615 12.7415 14.7199C12.6447 14.8249 12.5266 14.904 12.3967 14.9509C12.2668 14.9979 12.1285 15.0114 11.9929 14.9904H4.00708C3.87148 15.0114 3.73325 14.9979 3.60331 14.9509C3.47338 14.904 3.35531 14.8249 3.25846 14.7199C3.16161 14.615 3.08863 14.487 3.04531 14.3462C3.00198 14.2054 2.9895 14.0556 3.00885 13.9087ZM10.9947 7.41826V9.58174Z" fill="#14BF00"/>
<path d="M10.9947 7.41826V9.58174M3.00885 13.9087V3.09132C2.9895 2.94439 3.00198 2.79458 3.04531 2.65378C3.08863 2.51298 3.16161 2.38503 3.25846 2.28008C3.35531 2.17513 3.47338 2.09605 3.60331 2.0491C3.73325 2.00215 3.87148 1.98862 4.00708 2.00959H11.9929C12.1285 1.98862 12.2668 2.00215 12.3967 2.0491C12.5266 2.09605 12.6447 2.17513 12.7415 2.28008C12.8384 2.38503 12.9114 2.51298 12.9547 2.65378C12.998 2.79458 13.0105 2.94439 12.9912 3.09132V13.9087C13.0105 14.0556 12.998 14.2054 12.9547 14.3462C12.9114 14.487 12.8384 14.615 12.7415 14.7199C12.6447 14.8249 12.5266 14.904 12.3967 14.9509C12.2668 14.9979 12.1285 15.0114 11.9929 14.9904H4.00708C3.87148 15.0114 3.73325 14.9979 3.60331 14.9509C3.47338 14.904 3.35531 14.8249 3.25846 14.7199C3.16161 14.615 3.08863 14.487 3.04531 14.3462C3.00198 14.2054 2.9895 14.0556 3.00885 13.9087Z" stroke="black" stroke-linecap="round" stroke-linejoin="round"/>
</svg>

<svg xmlns="http://www.w3.org/2000/svg" width="16" height="17" fill="none" viewBox="0 0 16 17"><path fill="#14bf00" d="M3.009 13.909V3.09a1 1 0 0 1 .036-.437 1 1 0 0 1 .213-.374.9.9 0 0 1 .345-.23.8.8 0 0 1 .404-.04h7.986a.8.8 0 0 1 .404.04c.13.046.248.125.345.23s.17.233.213.374.056.29.036.437V13.91c.02.147.007.296-.036.437a1 1 0 0 1-.213.374.9.9 0 0 1-.345.23.8.8 0 0 1-.404.04H4.007a.8.8 0 0 1-.404-.04.9.9 0 0 1-.345-.23 1 1 0 0 1-.213-.374 1 1 0 0 1-.036-.437m7.986-6.49v2.163Z"/><path stroke="#000" stroke-linecap="round" stroke-linejoin="round" d="M10.995 7.418v2.164m-7.986 4.327V3.09a1 1 0 0 1 .036-.437 1 1 0 0 1 .213-.374.9.9 0 0 1 .345-.23.8.8 0 0 1 .404-.04h7.986a.8.8 0 0 1 .404.04c.13.046.248.125.345.23s.17.233.213.374.056.29.036.437V13.91c.02.147.007.296-.036.437a1 1 0 0 1-.213.374.9.9 0 0 1-.345.23.8.8 0 0 1-.404.04H4.007a.8.8 0 0 1-.404-.04.9.9 0 0 1-.345-.23 1 1 0 0 1-.213-.374 1 1 0 0 1-.036-.437"/></svg>
